X:1
T:Title
L:1/8
M:3/4
K:Eb
V:1 treble nm="Grand Piano"
V:1
 z2 z2[Q:1/4=160] E2 | E4 G2 | B4 c2 | B4 A2 | A4 D2 | D4 F2 | A4 B2 | A4 G2 | G4 B,2 | B,4 E2 | %10
 G4 A2 | G4 F2 | F4 B,2 | B,4 D2 | F4 A2 | A4 G2 | G4 E2 | E4 G2 | B4 e2 | e4 c2 | A4 F2 | F4 E2 | %22
 D4 c2 | c4 B2 | G4 G2 | A4 G2 | c4 G2 | B4 =A2 | A4 F2 | G4 A2 | G4 F2 | E6- | E6 | E2 E2 E2 | %34
 E2 D2 C2 | D6- | D6 | F2 F2 F2 | F2 E2 D2 | E6- | E6 | G2 G2 G2 | G2 F2 E2 | A2 A2 A2 | A2 G2 F2 | %45
 D2 D2 D2 | D2 C2 D2 | E6- | E4 z2 |] %49

